!!!COA:	Josquin des Prez
!!!CDT:	~1450-1521/08/27
!!!COM: Moulu
!!!OPR:	Missa Missus est Gabriel Angelus
!!!ONM:	1
!!!OTL:	Kyrie
!!!AGN:	Mass; Kyrie
!!!SCT:	NJE 10.2
!!!SCA:	New Josquin Edition 10.2
!!!voices: 4
!!!voices-OPR:	4
**kern	**kern	**kern	**kern
*staff4	*staff3	*staff2	*staff1
*Ivox	*Ivox	*Ivox	*Ivox
*I"Bassus	*I"Tenor	*I"Altus	*I"Superius
*I'B	*I'T	*I'A	*I'S
*clefF4	*clefGv2	*clefGv2	*clefG2
*k[b-]	*k[b-]	*k[b-]	*k[b-]
*M2/1	*M2/1	*M2/1	*M2/1
*met(C|)	*met(C|)	*met(C|)	*met(C|)
=1-	=1-	=1-	=1-
!!section: Kyrie I
!!!OMD: Kyrie I
0r	0r	0r	0G
=2	=2	=2	=2
0r	0r	0r	1G
.	.	.	1d
=3	=3	=3	=3
0r	0r	0G	1d
.	.	.	2r
.	.	.	[2g/
=4	=4	=4	=4
0r	0r	1G	2g/]
.	.	.	4f/
.	.	.	4e/
.	.	1d	2.f/
.	.	.	4e/
=5	=5	=5	=5
0r	0G	1d	4d/
.	.	.	4c/
.	.	.	1B-
.	.	2r	.
.	.	[2g\	[2b-\
=6	=6	=6	=6
0r	1G	2g\]	2b-\]
.	.	4f\	4a/
.	.	4e\	4g/
.	1d	2.f\	2a/
.	.	.	[2b-\
.	.	4e\	.
=7	=7	=7	=7
0GG	1d	4d\	4b-\]
.	.	4c\	4a/
.	.	2.B-\	4g/
.	.	.	4f/
.	2r	.	4g/
.	.	4G/	4f/
.	[2G/	[2B-\	2e/
=8	=8	=8	=8
1GG	2G/]	2B-\]	[0d
.	4F/	4A/	.
.	4E/	4G/	.
1D	2.F/	1A	.
.	4G/	.	.
=9	=9	=9	=9
1D	2A/	1F	0d]
.	1B-	.	.
2r	.	2G/	.
[2G\	4A/	[2B-\	.
.	4G/	.	.
=10	=10	=10	=10
2G\]	[0d	2B-\]	0r
4F\	.	4A/	.
4E\	.	4G/	.
2.F\	.	[1A	.
4E\	.	.	.
=11	=11	=11	=11
4D\	0d]	2A/]	0r
4C/	.	.	.
1BB-	.	1B-	.
[2B-\	.	[2G/	.
=12	=12	=12	=12
4B-\]	1r	4G/]	0r
4A\	.	4A/	.
2G\	.	2B-\	.
2F\	[1d	2A/	.
[2G\	.	2B-\	.
=13	=13	=13	=13
4G\]	1d]	2G/	0r
4F\	.	.	.
2D\	.	2F/	.
1E	1c	2.G/	.
.	.	4A/	.
=14	=14	=14	=14
0D	1d	2B-\	1r
.	.	2A/	.
.	2.f\	1d	[1a
.	4e\	.	.
=15	=15	=15	=15
0r	2d\	1r	1a]
.	2c\	.	.
.	1B-	1d	1g
=16	=16	=16	=16
1r	1A	1c	1.a
1D	1F	2d\	.
.	.	[2f\	4g/
.	.	.	4f/
=17	=17	=17	=17
1C	2.c\	4f\]	1g
.	.	4c\	.
.	.	2e\	.
.	4B-\	.	.
1D	2A/	1d	1f
.	2B-\	.	.
=18	=18	=18	=18
[0F	2.A/	2c\	2.a/
.	.	1f	.
.	4B-\	.	4g/
.	1c	.	4a/
.	.	.	4b-\
.	.	2e\	[2cc\
=19	=19	=19	=19
0F]	1r	2d\	2cc\]
.	.	4c\	2.b-\
.	.	4B-\	.
.	2r	1c	.
.	.	.	4g/
.	[2F/	.	2a/
=20	=20	=20	=20
2r	2F/]	1B-	1d
2BB-/	1G	.	.
1C	.	1r	1r
.	[2A/	.	.
=21	=21	=21	=21
1D	2A/]	0r	0r
.	1B-	.	.
1E-i	.	.	.
.	[2G/	.	.
=22	=22	=22	=22
1C	2G/]	0r	1r
.	1A	.	.
1D	.	.	1f
.	2D/	.	.
=23	=23	=23	=23
1GG	1D	1B-	1g
1r	1r	2c\	1a
.	.	[2d\	.
=24	=24	=24	=24
0r	0r	2d\]	1b-
.	.	1e-i	.
.	.	.	1g
.	.	[2c\	.
=25	=25	=25	=25
1r	2r	2c\]	1a
.	1F	1d	.
1BB-	.	.	1d
.	[2G/	2G/	.
=26	=26	=26	=26
1C	2G/]	1c	1r
.	1A	.	.
1D	.	2F/	1f
.	[2B-\	2f\	.
=27	=27	=27	=27
1E-i	2B-\]	0e-i	1.g
.	2G/	.	.
1C	1c	.	.
.	.	.	[2a/
=28	=28	=28	=28
0D	2B-\	0d	4a/]
.	.	.	4g/
.	4A/	.	1g
.	4G/	.	.
.	1A	.	.
.	.	.	2f#i/
=29	=29	=29	=29
0GGl	0Gl	0dl	0gl
!!LO:LB:i:g=z
=30||	=30||	=30||	=30||
*>B	*>B	*>B	*>B
!!section: Christe
!!!OMD: Christe
*M2/1	*M2/1	*M2/1	*M2/1
*met(C|)	*met(C|)	*met(C|)	*met(C|)
0r	0r	0d	1r
.	.	.	[1a
=31	=31	=31	=31
0r	0r	1d	1a]
.	.	[1c	1a
=32	=32	=32	=32
0r	0r	2c\]	1.g
.	.	4B-\	.
.	.	4A/	.
.	.	2.G/	.
.	.	.	4f/
.	.	4A/	4e/
=33	=33	=33	=33
0r	0r	4B-\	2.d/
.	.	4c\	.
.	.	1d	.
.	.	.	4e/
.	.	.	4f/
.	.	.	4g/
.	.	4c\	[2a/
.	.	4B-\	.
=34	=34	=34	=34
0r	0r	2.c\	2a/]
.	.	.	4g/
.	.	4d\	4f/
.	.	1e	2.g/
.	.	.	4a/
=35	=35	=35	=35
0r	0r	2d\	1b-
.	.	1g	.
.	.	.	1a
.	.	2f#i\	.
=36	=36	=36	=36
0r	0r	2.g\	2r
.	.	.	2.dd\
.	.	4f\	.
.	.	2d\	.
.	.	.	4cc\
.	.	2f\	2a/
=37	=37	=37	=37
0r	0r	2.e\	2cc\
.	.	.	2.b-\
.	.	4d\	.
.	.	2.g\	.
.	.	.	4a/
.	.	.	[2dd\
.	.	4f\	.
=38	=38	=38	=38
0r	0r	2d\	4dd\]
.	.	.	4cc\
.	.	2f\	2a/
.	.	2.e\	2cc\
.	.	.	[2b-\
.	.	4d\	.
=39	=39	=39	=39
0r	0r	2g\	4b-\]
.	.	.	4a/
.	.	2f\	1dd
.	.	1e	.
.	.	.	2cc#i\
=40	=40	=40	=40
0D	1r	0d	0dd
.	[1A	.	.
=41	=41	=41	=41
1D	1A]	0r	0r
2.C/	1A	.	.
4D\	.	.	.
=42	=42	=42	=42
4E\	2.G/	0r	0r
4F\	.	.	.
2.G\	.	.	.
.	4A/	.	.
.	4B-\	.	.
4F\	4c\	.	.
2D\	[2d\	.	.
=43	=43	=43	=43
1E	2d\]	0r	0r
.	2c#i\	.	.
1D	1d	.	.
=44	=44	=44	=44
2.G\	2r	0r	0r
.	2.d\	.	.
4F\	.	.	.
2D\	.	.	.
.	4c\	.	.
2F\	2A/	.	.
=45	=45	=45	=45
2.E\	2c\	0r	0r
.	2.B-\	.	.
4D\	.	.	.
2.G\	.	.	.
.	4A/	.	.
.	[2d\	.	.
4F\	.	.	.
=46	=46	=46	=46
2D\	4d\]	0r	0r
.	4c\	.	.
2F\	2A/	.	.
2E\	2c\	.	.
[2D\	[2B-\	.	.
=47	=47	=47	=47
4D\]	4B-\]	0r	0r
4C/	4A/	.	.
2BB-/	1G	.	.
1AA	.	.	.
.	2F#i/	.	.
=48	=48	=48	=48
2GG/	1G	0B-	0r
1G	.	.	.
.	2r	.	.
4F\	2G/	.	.
4E\	.	.	.
=49	=49	=49	=49
1D	2A/	1F	1r
.	2.d\	.	.
2GG/	.	1G	[1b-
.	4c\	.	.
[2G\	4B-\	.	.
.	4A/	.	.
=50	=50	=50	=50
2G\]	2B-\	4G/	1b-]
.	.	4A/	.
4F\	2G/	4B-\	.
4E\	.	4c\	.
1D	2A/	1d	1f
.	2F/	.	.
=51	=51	=51	=51
1C	1c	0e-i	1g
[1G	[1B-	.	4g/
.	.	.	4a/
.	.	.	4b-\
.	.	.	4cc\
=52	=52	=52	=52
2G\]	2B-\]	[0d	1.dd
4F\	4A/	.	.
4E\	4G/	.	.
[1D	1A	.	.
.	.	.	4cc\
.	.	.	4b-\
=53	=53	=53	=53
0D_	1r	0d]	2a/
.	.	.	2.f/
.	[1F	.	.
.	.	.	4g/
.	.	.	[2a/
=54	=54	=54	=54
1D]	1F]	2r	2a/]
.	.	1f	2d/
1r	1C	.	1g
.	.	2e\	.
=55	=55	=55	=55
0BB-	1D	1.d	[0f
.	4D/	.	.
.	4E/	.	.
.	4F/	4c\	.
.	4G/	4B-\	.
=56	=56	=56	=56
1FF	1A	2c\	1f]
.	.	2.d\	.
1GG	[1B-	.	1d
.	.	4c\	.
.	.	4B-\	.
.	.	4A/	.
=57	=57	=57	=57
4GG/	1B-]	2G/	2r
4AA/	.	.	.
4BB-/	.	2g\	2.d/
4C/	.	.	.
1D	[1A	2f\	.
.	.	.	4e/
.	.	[2d\	4f/
.	.	.	4d/
=58	=58	=58	=58
0E-i	2A/]	2d\]	1.g
.	4G/	4c\	.
.	4F/	4B-\	.
.	1G	1c	.
.	.	.	4f/
.	.	.	4e/
=59	=59	=59	=59
[0Dl	1A	[0dl	[0fl
.	1B-	.	.
=60	=60	=60	=60
0D]	0Al	0d]	0f]
!!LO:LB:i:g=z
=61||	=61||	=61||	=61||
!!section: Kyrie II
!!OMD: Kyrie II
*M2/1	*M2/1	*M2/1	*M2/1
*met(C|)	*met(C|)	*met(C|)	*met(C|)
1G	1r	0r	0r
2.F\	1d	.	.
4E\	.	.	.
=62	=62	=62	=62
2F\	2c\	1r	0r
2G\	2B-\	.	.
1E	1c	1g	.
=63	=63	=63	=63
1D	1d	2.f\	1dd
.	.	4e\	.
1r	1r	2f\	2cc\
.	.	2g\	2b-\
=64	=64	=64	=64
1r	0r	1e	1cc
1G	.	1d	1dd
=65	=65	=65	=65
2.F\	1d	0r	0r
4E\	.	.	.
2F\	2c\	.	.
2D\	2B-\	.	.
=66	=66	=66	=66
2.C/	2.c\	0r	0r
4D\	4B-\	.	.
4E\	2G/	.	.
4F\	.	.	.
[2G\	2B-\	.	.
=67	=67	=67	=67
2G\]	1A	1r	0r
2F\	.	.	.
2.G\	1G	1g	.
4F\	.	.	.
=68	=68	=68	=68
1D	0r	2.f\	1dd
.	.	4e\	.
1r	.	2f\	2cc\
.	.	2d\	2b-\
=69	=69	=69	=69
0r	0r	2.c\	2.cc\
.	.	4d\	4b-\
.	.	4e\	2g/
.	.	4f\	.
.	.	[2g\	2b-\
=70	=70	=70	=70
1D	1r	2g\]	1a
.	.	2f#i\	.
1G	1d	1g	2.g/
.	.	.	4f/
=71	=71	=71	=71
2C/	2c\	2r	4g/
.	.	.	4a/
2G\	2B-\	2d\	1b-
2E\	2.c\	2.g\	.
2F\	.	.	2a/
.	4B-\	4f\	.
=72	=72	=72	=72
1G	2G/	2.d\	2b-\
.	2B-\	.	1g
.	.	4B-\	.
2r	1A	2c\	.
2D\	.	2d\	2f#i/
=73	=73	=73	=73
1.E-i	0G	2B-\	0g
.	.	2.c\	.
.	.	4G/	.
2D\	.	2B-\	.
=74	=74	=74	=74
2C/	0r	2A/	1r
2BB-/	.	1G	.
1AA	.	.	1a
.	.	2F#i/	.
=75	=75	=75	=75
1GG	0r	4G/	1.b-
.	.	4A/	.
.	.	4B-\	.
.	.	4c\	.
1r	.	4d\	.
.	.	4e\	.
.	.	4f\	2a/
.	.	4d\	.
=76	=76	=76	=76
0r	1r	2e\	2g/
.	.	1d	2f/
.	1A	.	1e
.	.	2c#i\	.
=77	=77	=77	=77
1D	1.B-	1d	1d
[1E-i	.	1r	1r
.	2A/	.	.
=78	=78	=78	=78
2E-\]	2G/	0r	0r
2D\	2F/	.	.
2C/	4E/	.	.
.	4D/	.	.
2BB-/	[2G/	.	.
=79	=79	=79	=79
1AA	2G/]	1r	1a
.	2F#i/	.	.
1GG	1G	1d	[1b-
=80	=80	=80	=80
0r	0r	1.e-i	2b-\]
.	.	.	2a/
.	.	.	2g/
.	.	2d\	2f/
=81	=81	=81	=81
1r	2A/	2c\	4e/
.	.	.	4d/
.	2B-\	2B-\	1g
2r	2c\	1A	.
2D\	2d\	.	2f#i/
=82	=82	=82	=82
1.E-i	2.B-\	1G	0g
.	4A/	.	.
.	2G/	2.B-\	.
2D\	2F/	.	.
.	.	8A/L	.
.	.	8B-/J	.
=83	=83	=83	=83
2C/	2E/	2A/	1r
2BB-/	1D	1G	.
1AA	.	.	1a
.	2C/	2F#i/	.
=84	=84	=84	=84
0GG	1D	2.G/	1.b-
.	.	4A/	.
.	1G	1B-	.
.	.	.	2a/
=85	=85	=85	=85
0C	1.E	0c	2g/
.	.	.	2f/
.	.	.	1e
.	2F/	.	.
=86	=86	=86	=86
0GGl	0Gl	0B-l	0dl
==	==	==	==
*-	*-	*-	*-
!!!RDF**kern: l=long note in original notation
!!!RDF**kern: i=editorial accidental
!!!ENC:	Will Watson 07/07/2011
!!!END:	2011/07/07/
!!!EED:	Jesse Rodin
!!!EEV:	2011/12/26/
!!attribution-level@Jos: 4 (questionable)
!!!ONB:	Translated from MusicXML and edited on 2011/12/26/ by Craig Sapp
!!muse2ps: T^@{OPR}^u^@{ONM}{. }@{OTL}^C^@{COM}{/}@{COA}?\n@{SCT}^i2I100v85,90,85,150c95Q16
